X: 43001
T: Willoughby's
R: slide
M: 12/8
K: Dmajor
F|:B2c dcB A2F A3|F2A BAF E2D E2F|
B2c dcB A2F A3|1 e2e edB A2F E2F:|2 edB AFA EFG ABc||
|:A2d c2d B2A F2E|D2d c2d e2d c2B|
A2d c2d B2A E2F|1 G2A G2F E2F G2E:|2 G2A G2F E2F A2F||

